outputs/icons/maps/zoom_in_map_sharp.svg

<svg xmlns="http://www.w3.org/2000/svg" width="1200" height="1200" fill="none"><g clip-path="url(#a)"><path fill="#000" d="M450 450V150H350v129.5L195.5 125 125 195.5 279.5 350H150v100zm600 0V350H920.5L1075 195.5l-70.5-70.5L850 279.5V150H750v300zM150 750v100h129.5L125 1004.5l70.5 70.5L350 920.5V1050h100V750zm600 0v300h100V920.5l154.5 154.5 70.5-70.5L920.5 850H1050V750z"/></g><defs><clipPath id="a"><path fill="#fff" d="M0 0h1200v1200H0z"/></clipPath></defs></svg>

<svg width="1200" height="1200" viewBox="0 0 1200 1200" fill="none" xmlns="http://www.w3.org/2000/svg"><g clip-path="url(#clip0_238_1706)"><path d="M450 450V150H350V279.5L195.5 125L125 195.5L279.5 350H150V450H450ZM1050 450V350H920.5L1075 195.5L1004.5 125L850 279.5V150H750V450H1050ZM150 750V850H279.5L125 1004.5L195.5 1075L350 920.5V1050H450V750H150ZM750 750V1050H850V920.5L1004.5 1075L1075 1004.5L920.5 850H1050V750H750Z" fill="black"/></g><defs><clipPath id="clip0_238_1706"><path width="24" fill="white" d="M0 0H1200V1200H0V0z"/></clipPath></defs></svg>
